X:1
T:Bach - Adagio in C dur. {Professional production score.}
%%score { ( 1 6 8 9 ) | ( 2 3 7 ) | ( 4 5 ) }
L:1/8
Q:1/4=30
M:4/4
K:C
V:1 treble nm="Pipe Organ" snm="Org."
V:6 treble 
V:8 treble 
V:9 treble 
V:2 treble 
V:3 treble 
V:7 treble 
V:4 bass-8 
V:5 bass-8 
V:1
!mp!"^Adagio." Me2 z e e/>b/^g/>b/ Md>d | d/c/c z c c/>f/d/>f/ M_B>d | %2
 ^G/^F/G z/ G/e/>G/ A/G/A z/ A/B/>c/ | %3
 d/e/4f/4B/c/4d/4 ^G/>d/G/>d/ d/c/c/4B/4A/ ^f/=g/4a/4f/g/4a/4 | %4
 ^d/^c/d z/ d/b/>d/ e/d/e e/^f/4g/<e/g/4 | ^c/B/c a2- a/b/4=c'/<a/c'/4 ^d/>a/Pg/>^f/ | %6
 g2 z/ ^f/g/>a/ P=f/>e/Pf/>e/ Pf/>e/f/4g/4a/4^d/4 | %7
 e/>^d/e/>d/ e/>d/e/>d/ e/^f/4g/4f/g/4a/4 T^d>e | e2 z/ ^f/=g/>f/ g/>e/A/>e/ g/a/4_b/<a/g/4 | %9
 (g/=f/)f z/ e/f/>e/ f/>d/G/>d/ f/g/4a/<g/f/4 | (f/e/)e z/ e/f/>e/ d/>B/E/>B/ d/e/4f/<Pd/d/4 | %11
 (d/c/)c z/ c/d/>c/ _B/>G/C/>G/ B/c/4d/<B/B/4 | (_B/A/)A z/ A/_B/>A/ G/>E/A,/>E/ G/A/4_B/<G/G/4 | %13
 (G/F/)F F/4E/4D/A/4G/4F/ _B/4A/4G/d/4c/4B/ g/a/4_b/<_e/g/4 | %14
 g/^c/c z/ c/a/>c/ d/>e/d/4c/4d/4e/4 Te>d | d2 z/ d/e/>f/ =B/>f/B/>f/ G/>f/Me/>d/ | %16
 e>d c/>B/A/>G/ ^F/>d/F/>d/ ^G/>d/Mc/>B/ | c2 z/ a/=g/>a/ _b/>f/d/>f/ _B/>f/b/>A/ | %18
 ^G/4^F/4E/A/4G/4F/ B/4A/4G/c/4B/4A/[Q:1/4=25] d/>e/c/>B/ PB>A | %19
[Q:1/4=30] A2 z/ a/=g/>a/ _b/>f/d/>f/ _B/>f/b/>A/ | %20
 ^G/4^F/4E/A/4G/4F/ B/4A/4G/c/4B/4A/ d/>e/c/>B/[Q:1/4=20] TB>A | %21
"^Grave." A2- A/B/PB3/4A/8B/8 c>_B A/=G/^F/E/ | x4[Q:1/4=25] c4-[Q:1/4=15] | c4 z2 z/ d/=e/>=f/ | %24
 g4- g2 f2- | f2 Me2- e4 | ^f4- f2 e2- | e3 Me d4- | d2 c2 c4- | %29
 c4 =B4[Q:1/4=25][Q:1/4=20][Q:1/4=15] |!ff! !fermata![CEc]8 |] %31
V:2
 A2 z A B2 z B | BA z A F2 z F | E2 z E E2 z A | A2 z E E2 z c | B2 z B B2 z B | A2 z ^c ^d2 z d | %6
 e2 z B A2 z A | G2 z G G/B/A/=c/ ^FF | ^G2 z B A2 z A | A2 z A G2 z G | G2 z A B2 z B | %11
 BA z A G2 z G | GF z D E2 z E | ED z F G2 z _B | A2 z A A_BAG | F2 z A G2 z G | G2 z E D2 z E | %17
 E2 z c d2 z F | E z z E/^F/ ^GAAG | A2 z c d2 z F | E z z E/^F/ ^GAAG | A2 z2 z4 | %22
[K:bass] D/C/_B,/A,/ G,/^F,/E,/D,/!fff! _E4- | E4 D4 | E4 F4 | D2 E2- E4 | ^D4- D2 E2 | E2 =F2 D4 | %28
 B,2 C2 _A,4- | _A,4- A,4 | !fermata![C,E,G,]8 |] %31
V:3
 C2 z C B,2 z E | E2 z E D2 z D | =B,2 z B, A,2 z E | D2 z B, A,2 z A | ^F2 z F E2 z E | %5
 E2 z E ^F2 z F | E2 z E C2 z C | ^C2 z C B,2 z B, | B,2 z E E2 z E | ED z D D2 z D | %10
 DC z E E2 z E | E2 z E C2 z C | C2 z A, A,2 z A, | A,2 z D D2 z G | =E2 z E DDD^C | %15
 D2 z D D2 z D | C2 z C A,2 z ^G, | A,2 z E F2 z D | =B, ^F,^G, A, B,C/>D/ ED | C2 z E F2 z D | %20
 =B, ^F,^G, A, B,C/>D/ ED | C2 z2 z4 |[K:bass] x4 ^F,4- | F,4 G,4 | G,2 A,2 A,4 | ^G,4- G,2 A,2 | %26
 ^F,4 =G,4 | C4 =D4 | G,4 _A,3 =B,, | C,4 D,4 | x8 |] %31
V:4
 A,,A,A,A,, ^G,,^G,G,G,, | A,,A,A,A,, D,DDD, | D,DDD, C,CCC, | B,,B,B,E, A,,A,A,A,, | %4
 A,,A,A,A,, =G,,G,G,G,, | G,,G,G,G,, ^F,,^F,F,B,, | E,,E,E,E,, A,,A,A,A,, | %7
 ^A,,^A,A,A,, B,,B,B,B,, | E,,E,E,=D, ^C,^CCC, | D,DDD, B,,B,B,B,, | C,CCC, ^G,,^G,G,G,, | %11
 A,,A,A,A,, E,,E,E,E,, | F,,F,F,F,, ^C,^CCC, | D,DDD, G,,G,G,G,, | G,,G,G,G,, F,,G,,A,,A,, | %15
 D,,D,D,D,, G,,G,G,G,, | C,CCC, C,CB,E, | A,,A,A,A,, D,,D,D,D,, | D,,D,D,C, B,,A,,E,E,, | %19
 A,,2 A,A,, D,,D,D,D,, | D,,D,D,C, B,,A,,E,E,, | A,,2 z2 z4 | z4 _B,,4- | B,,4- B,,2 _B,2 | %24
 ^C,4 F,,2 F,2 | ^G,,4 C,2 C2 | ^D,4 G,,2 G,2 | A,4 B,4 | E,4 z C, F,2 | C,8 | !fermata!C,,8 |] %31
V:5
 x8 | x8 | x8 | x8 | x8 | x8 | x8 | x8 | x8 | x8 | x8 | x8 | x8 | x8 | x8 | x8 | x8 | x8 | x8 | %19
 A,,A, x6 | x8 | x8 | x8 | x8 | x8 | x8 | x8 | x8 | x8 | x8 | x8 |] %31
V:6
 x8 | x8 | x8 | x8 | x8 | x8 | x8 | x8 | x8 | x8 | x8 | x8 | x8 | x8 | x8 | x8 | x8 | x8 | x8 | %19
 x8 | x8 | x8 | x4 A4- | A2 G^F G4 | B2 AG A4 | =B4- B2 A=G | ^F4 G4 | c4- ccBA | FFED E2 F2 | %29
 C4 D4 | x8 |] %31
V:7
 x8 | x8 | x8 | x8 | x8 | x8 | x8 | x8 | x8 | x8 | x8 | x8 | x8 | x8 | x8 | x8 | x8 | x8 | x8 | %19
 x8 | x8 | x8 |[K:bass] x4 A,4- | A,4 _B,4 | ^C4- C2 D2- | =B,4 =C4 | A,2 B,2 B,4 | x8 | x8 | %29
 _A,3 G, F,4 | x8 |] %31
V:8
 x8 | x8 | x8 | x8 | x8 | x8 | x8 | x8 | x8 | x8 | x8 | x8 | x8 | x8 | x8 | x8 | x8 | x8 | x8 | %19
 x8 | x8 | x8 | x8 | x4 _B4- | e4- e2 d=c | d3 d- d2 c2- | c2 BA B3 B | A4- A2 x2 | G4- G2 F2 | %29
 EC F2- F2- F/_A/G/F/ | x8 |] %31
V:9
 x8 | x8 | x8 | x8 | x8 | x8 | x8 | x8 | x8 | x8 | x8 | x8 | x8 | x8 | x8 | x8 | x8 | x8 | x8 | %19
 x8 | x8 | x8 | x8 | x8 | x8 | x8 | x8 | G2 =F2- F2 GF- | D2 E2 C4- | x8 | x8 |] %31

